Obsidian-SemiLight/actions/24s/text-field.svg

<svg viewBox="0 0 24 24" xmlns="http://www.w3.org/2000/svg"><path d="m4 4v1h2v14h-2v1h5v-1h-2v-14h2v-1zm5 12v2h1 9 1v-1-1h-1v1h-9v-1z" fill="#4d4d4d"/></svg>

<svg xmlns="http://www.w3.org/2000/svg" viewBox="0 0 24 24">
  <defs id="defs3051">
    <style type="text/css" id="current-color-scheme">
      .ColorScheme-Text {
        color:#4d4d4d;
      }
      </style>
  </defs>
 <path style="fill:currentColor;fill-opacity:1;stroke:none" 
     d="M 4 4 L 4 5 L 6 5 L 6 19 L 4 19 L 4 20 L 9 20 L 9 19 L 7 19 L 7 5 L 9 5 L 9 4 L 4 4 z M 9 16 L 9 18 L 10 18 L 19 18 L 20 18 L 20 17 L 20 16 L 19 16 L 19 17 L 10 17 L 10 16 L 9 16 z "
     class="ColorScheme-Text"
     />
</svg>
